X: 28
T: Jia nai
%%abc-version 2.0
%%abcx-abcm2ps-target-version 5.9.1 (29 Sep 2008)
%%abc-creator hum2abc beta
%%abcx-conversion-date 2013/10/02 07:44:27
%%abc-edited-by Helmut Schaffrath
%%humdrum-veritas 590249809
%%humdrum-veritas-data 639948258
%%continueall 1
%%barnumbers 0
L: 1/16
M: 3/4
K: G
D2 D2 [I:setbarnb 1]| 
D4G3 F | 
E4G A G B | 
A2> B2 A d B d | 
A2 A2 B d B2 | 
A8- | 
A8- | 
A8 | 
z4z3 A | 
A2> d2 B2 d2 | 
B4e3 d | 
e2> g2 e2 d2 | 
B4d g e g | 
e g d2 B d B A | 
A4B2 d2 | 
B4e g d2 | 
B2> d2 A d B2 | 
D8- | 
D8- | 
D8 | 
D2> D2 D2 G G | 
E4G3 B | 
A2> B2 A d B d | 
A4d3 B | 
A2> B2 G B A2 | 
E2> G2 E2 G2 | 
E4G2 E2 | 
D2> G2 E3 G | 
E4A B A2 | 
E2> A2 A/ E/ G E2 | 
D8- | 
D8- | 
D8- | 
D2> z2z4 |]  



